X:3178
T:Colección Feij\'oo: N\'umero 74
O:Galicia (Spain)
B:Libro Aires da Terra, de J.L. Calle
Z:Transcrito por Jos\'e J. Presedo
Z:Covertido de Midi a abc por Antonio-Nil
N:http://www.arrakis.es/~jpresedo/
M: 4/4
L: 1/8
Q:1/4=180
K:D % 2 sharps
z3D FA dc|ed cB c/2B/2-[B/2A/2-]A/2 FD|FA B/2A/2-[A/2G/2-]G/2 EC EG|BA FD FA dc|
ed cB c/2B/2-[B/2A/2-]A/2 FD|FG B/2A/2-[A/2G/2-]G/2 EC EF|D3E/2D/2- [F/2-D/2]F/2A dc|ed cB c/2B/2-[B/2A/2-]A/2 FD|
FA B/2A/2-[A/2G/2-]G/2 EC EG|BA FD FA dc|ed cB c/2B/2-[B/2A/2-]A/2 FD|FG B/2A/2-[A/2G/2-]G/2 EC EF|
D4 GE C2|EF/2E/2- [E/2D/2-]D/2E F2<D2|GE C2 EF/2E/2- [F/2-E/2]F/2E|D4 GE C2|
EF/2E/2- [E/2D/2-]D/2E F2<D2|GE C2 EF/2E/2- [F/2-E/2]F/2E|D4 GE C2|EF/2E/2- [E/2D/2-]D/2E F2<D2|
GE C2 EF/2E/2- [F/2-E/2]F/2E|D4 GE C2|EF/2E/2- [E/2D/2-]D/2E F2<D2|GE C2 EF/2E/2- [F/2-E/2]F/2E|
D3D FA dc|ed cB c/2B/2-[B/2A/2-]A/2 FD|FA B/2A/2-[A/2G/2-]G/2 EC EG|BA FD FA dc|
ed cB c/2B/2-[B/2A/2-]A/2 FD|FG B/2A/2-[A/2G/2-]G/2 EC EF|D3E/2D/2- [F/2-D/2]F/2A dc|ed cB c/2B/2-[B/2A/2-]A/2 FD|
FA B/2A/2-[A/2G/2-]G/2 EC EG|BA FD FA dc|ed cB c/2B/2-[B/2A/2-]A/2 FD|FG B/2A/2-[A/2G/2-]G/2 EC EF|
D4 GE C2|EF/2E/2- [E/2D/2-]D/2E F2<D2|GE C2 EF/2E/2- [F/2-E/2]F/2E|D4 GE C2|
EF/2E/2- [E/2D/2-]D/2E F2<D2|GE C2 EF/2E/2- [F/2-E/2]F/2E|D4 GE C2|EF/2E/2- [E/2D/2-]D/2E F2<D2|
GE C2 EF/2E/2- [F/2-E/2]F/2E|D4 GE C2|EF/2E/2- [E/2D/2-]D/2E F2<D2|GE C2 EF/2E/2- [F/2-E/2]F/2E|
D2 


